X: 31
T:Kitty O'Niel's Champion
% Nottingham Music Database
S:Chicago
M:4/4
L:1/8
R:Hornpipe
K:A
AB|"A"c2^B2 c2B2|"A"c^Bcf ecAc|"Bm"B2^A2 B2A2|"Bm"Bagf "E7"edcB|
"A"c2^B2 c2B2|"A"c^Bcf ecAc|"Bm"B2^A2 B2=a2|"E7"g2/3f2/3e2/3d2/3c2/3B2/3 "A"A4|
"A"c2a2 c2Bc|"Bm"d2b2 B2Bc|"D"defg agaf|"E7"e2/3f2/3e2/3d2/3c2/3B2/3 "A"c2A2|
"A"c2a2 c2Bc|"Bm"d2b2 B2Bc|"D"defg agaf|"E7"e2/3f2/3e2/3d2/3c2/3B2/3 "A"A2:|


